X:627
L:1/16
M:2/4
K:G
"G" d2d2 G2G2 |"D7" FGAB c2c2 | e2e2 F2F2 |"G" GABc d2d2 | g2g2 G2G2 |"Am/C" e2e2 A2A2 | 
"D7" c2F2 B2>A2 |1"D7" AGFE"G" D4 :|2"G" G2B2 G2 z2 ||[K:D]"D" A^GA^A B2A2 | AFGA B2A2 | 
"A7" edcB A2G2 |"D" FdcB A4 | A^GA^A B2A2 | AFGA B2A2 |"A7" gfed cABc |"D" .d4"_>Teil A" z4 |: 
[K:C]"C" G6 AG | G6 AG | G2e2 c2A2 | G4 z2 c"_=" d |"G7" (c2B2) B2B2 | d2>c2 BAGF |"C" E2cd e2ce | 
"G7" g4 g4 |"C" G6 AG | G6 AG | G2e"_=" d"F" cBc"_=" A |"C" G6"_=" G2 |"F" A6 f"_=" A |"C" G6 c2 | 
"G7" cBAB e2>d2 |"C" c2c2 c2 z2 :|

